X: 1
T: The Cadge
T: The Cage
C: James Hill
M: 4/4
L: 1/8
S: William Hall Lister ms (1840-1860)
K: Amaj
AB|cBdc BAcB|A2E2 E2FG|AGBA cBdc|BABc B2AB|
cBdc BAcB|A2E2 E2FG|AGBA FdBG|B2A2 A2:|
|:eg|aAce agba|gfag fagf|eEGB e^dfe|=dced c2ed|
cBdc BAcB|AGBA GFED|CEAd cBAG|B2A2 A2:|
